X:93
T:Spanish Jig. JaW.093
M:6/8
L:1/8
Q:3/8=110
S:James Winder Ms, Lancashire, 1835-41
R:.Jig
O:England
A:Wyresdale,Lancashire
N:”=” – underscored with an equals sign, presumably means ornament that
N:note.
Z:vmp.Chris Partington, Aug 2004
K:D
“_=”D3 “_=”F3|(AF)A d2A|Bcd AGF|EFE CB,A,|!
“_D in MS”D3 F3|(AF)A d2A|Bcd edc|dec d3:|!
|:d3f3|efe cBA|BcB AGF|EFE CB,A,|!
g3 f3|efe cBA|Bcd edc|dec d3:|

